X: 3
T: The Humours Of Drinagh
R: jig
M: 6/8
L: 1/8
K: Dmaj
|: G |FDF ABc | dfd ecA | F2 F AA/B/c | dcA GBG |
FD/E/F A>Bc | dfd ecA | f^ef g=ec | Adc d2 :|
|: e |f^ef gfg | agf gfe | fd/e/f g2 g | agf g>fg |
agf gfe | ff/e/d ecA | f2 f gec | Adc d2 :|


Tune 413	Setting 413

